dist/img/star.svg

<svg width="27" height="25" viewBox="0 0 27 25" fill="none" xmlns="http://www.w3.org/2000/svg">
<path d="M12.6095 1.3665C12.9088 0.445193 14.2122 0.445193 14.5116 1.3665L16.8296 8.50054C16.9635 8.91256 17.3474 9.19152 17.7806 9.19152H25.2818C26.2505 9.19152 26.6533 10.4311 25.8696 11.0005L19.801 15.4096C19.4505 15.6643 19.3039 16.1156 19.4377 16.5276L21.7557 23.6617C22.0551 24.583 21.0006 25.3491 20.2169 24.7797L14.1483 20.3706C13.7978 20.116 13.3232 20.116 12.9727 20.3706L6.90418 24.7797C6.12047 25.3491 5.06599 24.583 5.36534 23.6617L7.68332 16.5276C7.8172 16.1156 7.67054 15.6643 7.32005 15.4096L1.25148 11.0005C0.467771 10.4311 0.870547 9.19152 1.83927 9.19152H9.34043C9.77366 9.19152 10.1576 8.91256 10.2915 8.50054L12.6095 1.3665Z" fill="#FFB545"/>
</svg>

<svg width="27" height="25" fill="none" xmlns="http://www.w3.org/2000/svg"><path d="M12.61 1.367c.299-.922 1.602-.922 1.902 0L16.83 8.5a1 1 0 00.95.69h7.502c.968 0 1.371 1.24.588 1.81l-6.07 4.41a1 1 0 00-.363 1.118l2.318 7.134c.3.921-.755 1.687-1.54 1.118l-6.068-4.41a1 1 0 00-1.175 0l-6.069 4.41c-.784.57-1.838-.197-1.539-1.118l2.318-7.134a1 1 0 00-.363-1.118L1.251 11c-.783-.569-.38-1.808.588-1.808H9.34a1 1 0 00.951-.691l2.319-7.134z" fill="#FFB545"/></svg>
